X: 119
M: 6/8
L: 1/8
K: C
V: 1
|:\
c3 ecA | afd {c}B3 | cGF EFG | ABc dBG |\
|:\
ecA e2^f | g3 G3 | dBG d2e | =f3 F3 |\
dBG def | edc BAG | (A/B/)cA (B/c/)dB | c3 C3 |]
V: 2 clef=bass middle=d
|:\
c3 A3 | f3 g2f | e2d c3 | f3 g3 |\
f2e d2B | c2e f2a | c'ba g2G | c2G C3 :|
|:\
a3 c'2a | bag G3 | g3 b2g | agf F3 |\
g3 b3 | c'ba g2G | f3 g3 | c2G C3 |]

